shader_type canvas_item;

void vertex() {
	//VERTEX += vec2(10.0, 0.0);
	// Called for every vertex the material is visible on.
}

uniform float blue = 1.0; 

void fragment() {
	//COLOR = texture(TEXTURE, UV);
	//COLOR.b = blue;
	// Called for every pixel the material is visible on.
}

//void light() {
//	// Called for every pixel for every light affecting the CanvasItem.
//	// Uncomment to replace the default light processing function with this one.
//}
